X:1
T:If You Will Not Have Me, You May Let Me Go
M:6/4
N:This is a different version to that found in Vickers,
N: learnt from the Kelham Island session in Sheffield: 
N: the Plain Brown Wrapper Band play this version
R:Hornpipe
L:1/4
Z:Steve Mansfield 20070810
K:Bm
FBB dcB | Acc edc | Bff edc | e/d/c/B/ A/B/c/A/ B2 :|
|: fBB gfB | b/a/g/f/ e/d/c/B/ A2 | GB A/B/c/A/ e/d/c/B/ | FB A/B/c/A/ B2 :|
|: B,DDFFD | EGGccA | Bdd FFD | E2 F2 B,2 :|
|: dBBGGE | cAAFFD | BGGEFD | E2F2B,2 :|

